X: 10702
T: Down With The Peebles
R: reel
M: 4/4
K: Dmajor
|:B|(AG)(FE) F2 Fd|(AG)(FE) E2 Bd|(AG)(FE) (de)(fe)|(dcdF) E3:|
|:B|AFdF AFdF|AFdF A2 AB|(AF)(ED) (de)(fe)|(dAdF) E3:|
|:b|(ag)(fe) f2 fb|agfg e2 eb|(ag)(fe) defe|(dcdF) E3:|

